X: 28373
T: Muineira De Ourense
R: slide
M: 12/8
K: Cmajor
~G2G GFE DEF ~G2G|~A2A AGG cGG FFE|
CED CEE EDC AAF|CED ~C3 BCD ~E2C|
CED CEE EDC AAF|CED C2C BCD CGC:|
K:F
|:~A2A cAc cBA B2G|~G2G BGB BAG A2F|
~A2A ADE FGA c2B|BcB ABA GAG ~F3:|

